public/flags/VE.svg

<svg fill="none" height="53" viewBox="0 0 61 53" width="61" xmlns="http://www.w3.org/2000/svg" xmlns:xlink="http://www.w3.org/1999/xlink"><mask id="a" height="43" maskUnits="userSpaceOnUse" width="59" x="1" y="3"><rect fill="#fff" height="42.5" rx="4.24286" width="59" x="1" y="3"/></mask><rect fill="#fff" height="42.5" rx="4.24286" width="59" x="1" y="3"/><g clip-rule="evenodd" fill-rule="evenodd" mask="url(#a)"><path d="m1 31.3334h59v-14.1667h-59z" fill="#063191"/><path d="m1 45.5h59v-14.1666h-59z" fill="#e2213b"/><path d="m30.5001 22.8333c.7758 0 1.4047-.6342 1.4047-1.4166s-.6289-1.4167-1.4047-1.4167c-.7759 0-1.4048.6343-1.4048 1.4167s.6289 1.4166 1.4048 1.4166zm-5.6191 1.4167c.7758 0 1.4048-.6343 1.4048-1.4167s-.629-1.4166-1.4048-1.4166-1.4048.6342-1.4048 1.4166.629 1.4167 1.4048 1.4167zm12.6429-1.4167c0 .7824-.629 1.4167-1.4048 1.4167s-1.4047-.6343-1.4047-1.4167.6289-1.4166 1.4047-1.4166 1.4048.6342 1.4048 1.4166zm-15.4524 5.6667c.7758 0 1.4048-.6343 1.4048-1.4167s-.629-1.4167-1.4048-1.4167-1.4048.6343-1.4048 1.4167.629 1.4167 1.4048 1.4167zm18.2619-1.4167c0 .7824-.6289 1.4167-1.4047 1.4167-.7759 0-1.4048-.6343-1.4048-1.4167s.6289-1.4167 1.4048-1.4167c.7758 0 1.4047.6343 1.4047 1.4167z" fill="#fff"/><path d="m1 17.1667h59v-14.1667h-59z" fill="#ffd044"/></g></svg>

<svg width="61" height="53" viewBox="0 0 61 53" fill="none" xmlns="http://www.w3.org/2000/svg">
<rect x="1" y="3" width="59" height="42.5" rx="4.24286" fill="white"/>
<mask id="mask0" mask-type="alpha" maskUnits="userSpaceOnUse" x="1" y="3" width="59" height="43">
<rect x="1" y="3" width="59" height="42.5" rx="4.24286" fill="white"/>
</mask>
<g mask="url(#mask0)">
<path fill-rule="evenodd" clip-rule="evenodd" d="M1 31.3334H60V17.1667H1V31.3334Z" fill="#063191"/>
<path fill-rule="evenodd" clip-rule="evenodd" d="M1 45.5H60V31.3334H1V45.5Z" fill="#E2213B"/>
<path fill-rule="evenodd" clip-rule="evenodd" d="M30.5001 22.8333C31.2759 22.8333 31.9048 22.1991 31.9048 21.4167C31.9048 20.6343 31.2759 20 30.5001 20C29.7242 20 29.0953 20.6343 29.0953 21.4167C29.0953 22.1991 29.7242 22.8333 30.5001 22.8333ZM24.881 24.25C25.6568 24.25 26.2858 23.6157 26.2858 22.8333C26.2858 22.0509 25.6568 21.4167 24.881 21.4167C24.1052 21.4167 23.4762 22.0509 23.4762 22.8333C23.4762 23.6157 24.1052 24.25 24.881 24.25ZM37.5239 22.8333C37.5239 23.6157 36.8949 24.25 36.1191 24.25C35.3433 24.25 34.7144 23.6157 34.7144 22.8333C34.7144 22.0509 35.3433 21.4167 36.1191 21.4167C36.8949 21.4167 37.5239 22.0509 37.5239 22.8333ZM22.0715 28.5C22.8473 28.5 23.4763 27.8657 23.4763 27.0833C23.4763 26.3009 22.8473 25.6666 22.0715 25.6666C21.2957 25.6666 20.6667 26.3009 20.6667 27.0833C20.6667 27.8657 21.2957 28.5 22.0715 28.5ZM40.3334 27.0833C40.3334 27.8657 39.7045 28.5 38.9287 28.5C38.1528 28.5 37.5239 27.8657 37.5239 27.0833C37.5239 26.3009 38.1528 25.6666 38.9287 25.6666C39.7045 25.6666 40.3334 26.3009 40.3334 27.0833Z" fill="white"/>
<path fill-rule="evenodd" clip-rule="evenodd" d="M1 17.1667H60V3H1V17.1667Z" fill="#FFD044"/>
</g>
</svg>
